styles/5/Numix/64/places/red-folder-vm.svg

<?xml version="1.0" encoding="UTF-8" standalone="no"?>
<!-- Created with Inkscape (http://www.inkscape.org/) -->

<svg
   xmlns:dc="http://purl.org/dc/elements/1.1/"
   xmlns:cc="http://creativecommons.org/ns#"
   xmlns:rdf="http://www.w3.org/1999/02/22-rdf-syntax-ns#"
   xmlns:svg="http://www.w3.org/2000/svg"
   xmlns="http://www.w3.org/2000/svg"
   xmlns:xlink="http://www.w3.org/1999/xlink"
   xmlns:sodipodi="http://sodipodi.sourceforge.net/DTD/sodipodi-0.dtd"
   xmlns:inkscape="http://www.inkscape.org/namespaces/inkscape"
   width="64"
   height="64"
   id="svg2"
   version="1.1"
   inkscape:version="0.91 r"
   sodipodi:docname="red-folder-vm.svg"
   inkscape:export-filename="/media/Data/Main/Visuals/Icons/Numix/Desktop/repos/numix-wiki/Gjorgi/Numix-folders/48/New/folder-144.png"
   inkscape:export-xdpi="270"
   inkscape:export-ydpi="270">
  <defs
     id="defs4">
    <linearGradient
       id="linearGradient3886-9">
      <stop
         style="stop-color:#000000;stop-opacity:1;"
         offset="0"
         id="stop3888-3" />
      <stop
         style="stop-color:#000000;stop-opacity:0.19607843;"
         offset="1"
         id="stop3890-7" />
    </linearGradient>
    <radialGradient
       r="24"
       fy="40.5"
       fx="24"
       cy="40.5"
       cx="24"
       gradientTransform="matrix(1.6666667,0,0,0.2777777,-8,1030.4456)"
       gradientUnits="userSpaceOnUse"
       id="radialGradient3078"
       xlink:href="#linearGradient3886-9"
       inkscape:collect="always" />
  </defs>
  <sodipodi:namedview
     id="base"
     pagecolor="#ffffff"
     bordercolor="#666666"
     borderopacity="1.0"
     inkscape:pageopacity="0.0"
     inkscape:pageshadow="2"
     inkscape:zoom="10.551073"
     inkscape:cx="43.675598"
     inkscape:cy="42.019238"
     inkscape:document-units="px"
     inkscape:current-layer="layer1"
     showgrid="true"
     inkscape:window-width="1280"
     inkscape:window-height="998"
     inkscape:window-x="0"
     inkscape:window-y="0"
     inkscape:window-maximized="1"
     showguides="true"
     inkscape:guide-bbox="true">
    <inkscape:grid
       type="xygrid"
       id="grid2985"
       empspacing="5"
       visible="true"
       enabled="true"
       snapvisiblegridlinesonly="true" />
  </sodipodi:namedview>
  <metadata
     id="metadata7">
    <rdf:RDF>
      <cc:Work
         rdf:about="">
        <dc:format>image/svg+xml</dc:format>
        <dc:type
           rdf:resource="http://purl.org/dc/dcmitype/StillImage" />
        <dc:title />
      </cc:Work>
    </rdf:RDF>
  </metadata>
  <g
     inkscape:label="Layer 1"
     inkscape:groupmode="layer"
     id="layer1"
     transform="translate(0,-988.3622)">
    <path
       inkscape:connector-curvature="0"
       style="opacity:0.1;fill:url(#radialGradient3078);fill-opacity:1;stroke:none"
       d="m 32,1035.0288 c -13.102065,0 -24.70396,1.0442 -32,2.6668 l 0,8 c 7.29604,1.6224 18.897935,2.6666 32,2.6666 13.102066,0 24.70396,-1.0442 32,-2.6666 l 0,-8 c -7.29604,-1.6226 -18.897934,-2.6668 -32,-2.6668 z"
       id="path3868" />
    <rect
       style="fill:#d32f2f;fill-opacity:1;stroke:none"
       id="rect2987"
       width="60"
       height="41.999908"
       x="2"
       y="1002.3622"
       rx="6.521739"
       ry="6.5624819" />
    <path
       style="opacity:0.2;fill:#ffffff;fill-opacity:1;stroke:none"
       d="M 8.521739,1001.6956 C 4.9086956,1001.6956 2,1004.6688 2,1008.3622 l 0,2.6666 c 0,-3.6932 2.9086956,-6.6666 6.521739,-6.6666 l 46.956521,0 c 3.613044,0 6.52174,2.9734 6.52174,6.6666 l 0,-2.6666 c 0,-3.6934 -2.908696,-6.6666 -6.52174,-6.6666 l -46.956521,0 z"
       id="rect3797"
       inkscape:connector-curvature="0" />
    <path
       style="fill:#ef5350;fill-opacity:1;stroke:none"
       d="m 8.521739,1012.3622 10.434783,0 c 14.347826,-1.3334 11.73913,-16 20.869564,-16 l 15.652174,0 c 3.613044,0 6.52174,2.9734 6.52174,6.6666 l 0,34.6668 c 0,3.6932 -2.908696,6.6666 -6.52174,6.6666 l -46.956521,0 C 4.9086956,1044.3622 2,1041.3888 2,1037.6956 l 0,-18.6668 c 0,-4 2.6086956,-6.6666 6.521739,-6.6666 z"
       id="rect3776"
       inkscape:connector-curvature="0"
       sodipodi:nodetypes="cccsssssscc" />
    <path
       id="path3207"
       d="m 11.25,1019.3622 c -1.163078,0 -2.0965994,0.8705 -2.21875,2 l 15.9375,0 c -0.122151,-1.1295 -1.055674,-2 -2.21875,-2 l -11.5,0 z m -2.25,3 0,12 16,0 0,-12 -16,0 z m 3,1 10,0 0,2 -10,0 0,-2 z m 0,3 10,0 0,2 -10,0 0,-2 z m 5,4 c 0.552285,0 1,0.4477 1,1 0,0.5523 -0.447715,1 -1,1 -0.552285,0 -1,-0.4477 -1,-1 0,-0.5523 0.447715,-1 1,-1 z m -7.96875,5 c 0.1221506,1.1296 1.055672,2 2.21875,2 l 11.5,0 c 1.163076,0 2.096599,-0.8704 2.21875,-2 l -15.9375,0 z"
       style="fill:#000000;fill-opacity:0.09803922"
       inkscape:connector-curvature="0" />
    <path
       style="fill:#fff8e1;fill-opacity:1"
       d="M 11.25 30 C 10.086922 30 9.1534006 30.870518 9.03125 32 L 24.96875 32 C 24.846599 30.870518 23.913076 30 22.75 30 L 11.25 30 z M 9 33 L 9 45 L 25 45 L 25 33 L 9 33 z M 12 34 L 22 34 L 22 36 L 12 36 L 12 34 z M 12 37 L 22 37 L 22 39 L 12 39 L 12 37 z M 17 41 C 17.552285 41 18 41.447715 18 42 C 18 42.552285 17.552285 43 17 43 C 16.447715 43 16 42.552285 16 42 C 16 41.447715 16.447715 41 17 41 z M 9.03125 46 C 9.1534006 47.129621 10.086922 48 11.25 48 L 22.75 48 C 23.913076 48 24.846599 47.129621 24.96875 46 L 9.03125 46 z "
       transform="translate(0,988.3622)"
       id="rect3007" />
    <path
       style="opacity:0.15;fill:#000000;fill-opacity:1;stroke:none"
       d="m 2,1035.0288 0,2.6668 c 0,3.6932 2.9086956,6.6666 6.521739,6.6666 l 46.956521,0 c 3.613044,0 6.52174,-2.9734 6.52174,-6.6666 l 0,-2.6668 c 0,3.6934 -2.908696,7.3334 -6.52174,7.3334 l -46.956521,0 C 4.9086956,1042.3622 2,1038.7222 2,1035.0288 z"
       id="path3786"
       inkscape:connector-curvature="0"
       sodipodi:nodetypes="csssscssc" />
  </g>
</svg>

<!-- Created with Inkscape (http://www.inkscape.org/) -->
<svg xmlns="http://www.w3.org/2000/svg" viewBox="0 0 64 64">
 <defs>
  <radialGradient r="24" cy="40.5" cx="24" gradientTransform="matrix(1.6666667,0,0,0.2777777,-8,1030.4456)" gradientUnits="userSpaceOnUse" id="radialGradient3078">
   <stop style="stop-color:#000;stop-opacity:1"/>
   <stop offset="1" style="stop-color:#000;stop-opacity:0.196"/>
  </radialGradient>
 </defs>
 <g transform="translate(0,-988.3622)">
  <path d="m 32 1035.03 c -13.1 0 -24.704 1.044 -32 2.667 l 0 8 c 7.296 1.622 18.898 2.667 32 2.667 13.1 0 24.704 -1.044 32 -2.667 l 0 -8 c -7.296 -1.623 -18.898 -2.667 -32 -2.667 z" style="fill:url(#radialGradient3078);opacity:0.1;fill-opacity:1;stroke:none"/>
  <rect width="60" height="42" x="2" y="1002.36" rx="6.522" ry="6.562" style="fill:#d32f2f;fill-opacity:1;stroke:none"/>
  <path d="m 8.522 1001.7 c -3.613 0 -6.522 2.973 -6.522 6.667 l 0 2.667 c 0 -3.693 2.909 -6.667 6.522 -6.667 l 46.957 0 c 3.613 0 6.522 2.973 6.522 6.667 l 0 -2.667 c 0 -3.693 -2.909 -6.667 -6.522 -6.667 l -46.957 0 z" style="fill:#fff;opacity:0.2;fill-opacity:1;stroke:none"/>
  <path d="m 8.522 1012.36 10.435 0 c 14.348 -1.333 11.739 -16 20.87 -16 l 15.652 0 c 3.613 0 6.522 2.973 6.522 6.667 l 0 34.667 c 0 3.693 -2.909 6.667 -6.522 6.667 l -46.957 0 c -3.613 0 -6.522 -2.973 -6.522 -6.667 l 0 -18.667 c 0 -4 2.609 -6.667 6.522 -6.667 z" style="fill:#ef5350;fill-opacity:1;stroke:none"/>
  <path d="m 11.25 1019.36 c -1.163 0 -2.097 0.87 -2.219 2 l 15.938 0 c -0.122 -1.13 -1.056 -2 -2.219 -2 l -11.5 0 z m -2.25 3 0 12 16 0 0 -12 -16 0 z m 3 1 10 0 0 2 -10 0 0 -2 z m 0 3 10 0 0 2 -10 0 0 -2 z m 5 4 c 0.552 0 1 0.448 1 1 0 0.552 -0.448 1 -1 1 -0.552 0 -1 -0.448 -1 -1 0 -0.552 0.448 -1 1 -1 z m -7.969 5 c 0.122 1.13 1.056 2 2.219 2 l 11.5 0 c 1.163 0 2.097 -0.87 2.219 -2 l -15.938 0 z" style="fill:#000;fill-opacity:0.098"/>
  <path d="m 11.25 30 c -1.163 0 -2.097 0.871 -2.219 2 l 15.938 0 c -0.122 -1.129 -1.056 -2 -2.219 -2 l -11.5 0 z m -2.25 3 l 0 12 l 16 0 l 0 -12 l -16 0 z m 3 1 l 10 0 l 0 2 l -10 0 l 0 -2 z m 0 3 l 10 0 l 0 2 l -10 0 l 0 -2 z m 5 4 c 0.552 0 1 0.448 1 1 c 0 0.552 -0.448 1 -1 1 c -0.552 0 -1 -0.448 -1 -1 c 0 -0.552 0.448 -1 1 -1 z m -7.969 5 c 0.122 1.13 1.056 2 2.219 2 l 11.5 0 c 1.163 0 2.097 -0.87 2.219 -2 l -15.938 0 z" transform="translate(0,988.3622)" style="fill:#fff8e1;fill-opacity:1"/>
  <path d="m 2 1035.03 0 2.667 c 0 3.693 2.909 6.667 6.522 6.667 l 46.957 0 c 3.613 0 6.522 -2.973 6.522 -6.667 l 0 -2.667 c 0 3.693 -2.909 7.333 -6.522 7.333 l -46.957 0 c -3.613 0 -6.522 -3.64 -6.522 -7.333 z" style="fill:#000;opacity:0.15;fill-opacity:1;stroke:none"/>
 </g>
</svg>
